X:1
T:Title
%%score { 1 | 2 }
L:1/8
Q:1/4=80
M:2/4
K:F
V:1 treble nm="Grand Piano"
V:2 bass 
V:1
 FF EC | FA A2 | GF [CE][=B,D] | DC C2 | [GB][GB] [Bd][GB] | [FA][FA] [Ac][FA] | [DA][DG] [EB]E | %7
w: John~E.~Kurzenknabe * * *|||||||
 GF F2 | FF EC | FA A2 | GF [CE][=B,D] | DC C2 | [GB][GB] [Bd]2 | [FA][FA] [Ac]2 | [DA][DG] [EB]E | %15
w: ||||||||
 GF F2 |] %16
w: |
V:2
 [F,A,C][F,A,C] [G,B,C][G,B,] | [F,A,C][F,CF] [F,CF]2 | [G,CE][G,D] [G,,G,][G,,F,] | %3
 [C,F,=B,][C,E,] [C,E,]2 | [C,C][C,C] [C,C][C,C] | [F,C][F,C] [F,C]2 | %6
 [B,,B,][B,,B,] [C,G,][C,B,C] | [F,B,C][F,A,C] [F,A,C]2 | [F,A,C][F,A,C] [G,B,C][G,B,] | %9
 [F,A,C][F,CF] [F,CF]2 | [G,CE][G,D] [G,,G,][G,,F,] | [C,F,=B,][C,E,] [C,E,]2 | [C,C][C,C] [C,C]2 | %13
 [F,C][F,C] [F,C]2 | [B,,B,][B,,B,] [C,G,][C,B,C] | [F,B,C][F,A,C] [F,A,C]2 |] %16

